assets/img/icons/duotone-icons/Media/Youtube.svg

<?xml version="1.0" encoding="UTF-8"?>
<svg width="24px" height="24px" viewBox="0 0 24 24" version="1.1" xmlns="http://www.w3.org/2000/svg" xmlns:xlink="http://www.w3.org/1999/xlink">
    <!-- Generator: Sketch 52.2 (67145) - http://www.bohemiancoding.com/sketch -->
    <title>Stockholm-icons / Media / Youtube</title>
    <desc>Created with Sketch.</desc>
    <g id="Stockholm-icons-/-Media-/-Youtube" stroke="none" stroke-width="1" fill="none" fill-rule="evenodd">
        <rect id="bound" x="0" y="0" width="24" height="24"></rect>
        <path d="M4.22266882,4 L19.8367728,4.00001353 C21.3873185,4.00001353 22.6823897,5.1816009 22.8241881,6.72564925 C22.9414021,8.00199653 23.0000091,9.40113909 23.0000091,10.9230769 C23.0000091,12.7049599 22.9196724,14.4870542 22.758999,16.26936 L22.7589943,16.2693595 C22.6196053,17.8155637 21.3235899,19 19.7711155,19 L4.22267091,19.0000022 C2.6743525,19.0000022 1.38037032,17.8217109 1.23577882,16.2801587 C1.07859294,14.6043323 1,13.0109461 1,11.5 C1,9.98905359 1.07859298,8.39566699 1.23577893,6.7198402 L1.23578022,6.71984032 C1.38037157,5.17828994 2.67435224,4 4.22266882,4 Z" id="Combined-Shape" fill="#335EEA" opacity="0.3"></path>
        <path d="M11.1821576,14.8052934 L15.5856084,11.7952868 C15.8135802,11.6394552 15.8720614,11.3283211 15.7162299,11.1003494 C15.6814583,11.0494808 15.6375838,11.0054775 15.5868174,10.970557 L11.1833666,7.94156929 C10.9558527,7.78507001 10.6445485,7.84263875 10.4880492,8.07015268 C10.4307018,8.15352258 10.3999996,8.25233045 10.3999996,8.35351969 L10.3999996,14.392514 C10.3999996,14.6686564 10.6238572,14.892514 10.8999996,14.892514 C11.000689,14.892514 11.0990326,14.8621141 11.1821576,14.8052934 Z" id="Path-10" fill="#335EEA"></path>
    </g>
</svg>

<svg width="24" height="24" viewBox="0 0 24 24" xmlns="http://www.w3.org/2000/svg"><g fill="none" fill-rule="evenodd"><path d="M0 0h24v24H0z"/><path d="M4.223 4h15.614a3 3 0 012.987 2.726A46.12 46.12 0 0123 10.923c0 1.782-.08 3.564-.241 5.346A3 3 0 0119.771 19H4.223a3 3 0 01-2.987-2.72A51.277 51.277 0 011 11.5c0-1.51.079-3.104.236-4.78A3 3 0 014.223 4z" fill="#335EEA" opacity=".3"/><path d="M11.182 14.805l4.404-3.01a.5.5 0 000-.824l-4.403-3.03a.5.5 0 00-.783.413v6.039a.5.5 0 00.782.412z" fill="#335EEA"/></g></svg>
